X:1
T:Austria (Beethoven), 10.10.11.11
T:Austria (Beethoven), 10.10.11.11
T:Ludvig van Beethoven
T:Public Domain Courtesy of the Cyber Hymnal™
C:Ludvig van Beethoven
Z:Public Domain
Z:Courtesy of the Cyber Hymnal™
%%score ( 1 2 ) ( 3 4 )
L:1/8
Q:1/4=115
M:3/4
K:G
V:1 treble 
V:2 treble 
V:3 bass 
V:4 bass 
V:1
 D2 | D2 [DG]2 [DG]2 | (G2 B2) [EB]2 | c3 E2 (AG) | G2 F2 D2 | D2 [DG]2 [DF]2 | [DG]2 [FA]2 [GB]2 | %7
 [Ad]2 [Ac]2 [GB]2 | [FA]4 [FA]2 | [GB]2 G2 (dB) | [FA]2 D2 [FA]2 | [GB]2 G2 (dB) | [FA]4 [GB]2 | %13
 [Gc]2 [Gd]2 [Ge]2 | [Gd]2 G2 c2 | B3 G2 [FA]2 | G4 |] %17
V:2
 D2 | D2 x4 | E4 x2 | (E2 E2) x3 | E4 D2 | D2 x4 | x6 | x6 | x6 | x2 G2 G2 | x2 D2 x2 | x2 G2 G2 | %12
 x6 | x6 | x2 G2 (EF) | G2 x5 | G4 |] %17
V:3
 [G,B,]2 | [G,B,]2 [G,B,]2 [G,B,]2 | (B,2 G,2) [E,G,]2 | [C,G,]2 [C,G,]2 [C,A,]2 x | %4
 (B,2 A,2) [C,F,]2 | [B,,G,]2 [B,D]2 [B,D]2 | D4 [G,D]2 | [F,D]2 [F,D]2 [G,D]2 | [D,D]4 [D,D]2 | %9
 [G,D]2 [E,E]2 [B,,D]2 | [D,D]2 [D,D]2 [D,D]2 | [G,D]2 [E,E]2 [B,,D]2 | [D,D]4 [G,D]2 | %13
 [E,C]2 [D,B,]2 [C,C]2 | [B,,D]2 [B,,D]2 [A,,C]2 | [G,,D]2 [C,E]2 (DC) x | [G,,B,]4 |] %17
V:4
 x2 | x6 | E,4 x2 | x7 | D,4 x2 | x6 | B,2 A,2 x2 | x6 | x6 | x6 | x6 | x6 | x6 | x6 | x6 | %15
 x4 D,2 x | x4 |] %17

